X:1
T:Title
%%score { ( 1 4 ) | ( 2 3 ) }
L:1/8
M:4/4
K:Ab
V:1 treble nm="Grand Piano"
V:4 treble 
V:2 bass 
V:3 bass 
V:1
 z4 z2[Q:1/4=100] [CE]2 | [CE]3 [B,D] [A,C][CE][CA][Ec] | B4 F2 [B,DF]2 | G3 F EdcB | %4
[M:3/4] [Ec]6 |[M:1/4] [CE]2 |[M:4/4] [CE]3 [B,D] [A,C][CE][CA][Ec] | B4 F2 [Fd]2 | c3 B AGFG | %9
[M:3/4] [CA]6 |[M:1/4] [CA]2 |[M:4/4] B3 G FEGB | A4 z2 [Ec]2 | [Ec]3 [Ec] [Fd]cBA |[M:3/4] B6 | %15
[M:1/4] c>d |[M:4/4] e3 c dcBA | [DFA]4 [DF]2 [Fd]2 | c3 B AGFG |[M:3/4] [CA]6 |] %20
V:2
 z4 z2 [A,,A,]2 | [A,,A,]3 [A,,E,] [A,,E,][A,,A,][A,,A,][A,,A,] | [D,D]4- [D,A,D]2 B,,2 | %3
 [E,B,D]3 [E,A,D] [E,G,D][E,B,E][E,A,E][E,G,E] |[M:3/4] [A,,A,]6 |[M:1/4] [A,,A,]2 | %6
[M:4/4] [A,,A,]3 [A,,E,] [A,,E,][A,,A,][A,,A,][A,,A,] | [D,D]4- [D,A,D]2 [D,A,]2 | %8
 [E,A,E]3 [E,G,E] [E,A,E][E,B,E][E,B,D][E,B,D] |[M:3/4] [A,,A,]6 |[M:1/4] [A,,A,]2 | %11
[M:4/4] [E,G,D]3 [E,B,D] [E,A,D][E,G,D][E,G,D][E,G,D] | z4 E2 [A,,A,]2 | %13
 [A,,A,]3 [A,,A,] [A,,A,][A,E][G,B,E][F,B,=D] |[M:3/4] [E,G,E]6 |[M:1/4] [A,E]2 | %16
[M:4/4][K:treble] [A,CA]3 [A,EA] [A,FA][A,EA][A,DE][K:bass][A,CE] | z4 A,2 [D,A,]2 | %18
 [E,A,E]3 [E,G,E] [E,A,E][E,B,E][E,B,D][E,B,D] |[M:3/4] [A,,A,]6 |] %20
V:3
 x8 | x8 | F,4 z4 | x8 |[M:3/4] x6 |[M:1/4] x2 |[M:4/4] x8 | F,4 z4 | x8 |[M:3/4] x6 |[M:1/4] x2 | %11
[M:4/4] x8 | A,,6 z2 | x8 |[M:3/4] x6 |[M:1/4] z z/ B,/ |[M:4/4][K:treble] x7[K:bass] x | D,6 z2 | %18
 x8 |[M:3/4] x6 |] %20
V:4
 x8 | x8 | x8 | x8 |[M:3/4] x6 |[M:1/4] x2 |[M:4/4] x8 | x8 | x8 |[M:3/4] x6 |[M:1/4] x2 | %11
[M:4/4] x8 | [A,C]6 z2 | x8 |[M:3/4] x6 |[M:1/4] x2 |[M:4/4] x8 | x8 | x8 |[M:3/4] x6 |] %20

